src/places/48/folder-download.svg

<?xml version="1.0" encoding="UTF-8"?>
<svg width="200" height="200" version="1.1" xmlns="http://www.w3.org/2000/svg" xmlns:cc="http://creativecommons.org/ns#" xmlns:dc="http://purl.org/dc/elements/1.1/" xmlns:rdf="http://www.w3.org/1999/02/22-rdf-syntax-ns#">
 <metadata>
  <rdf:RDF>
   <cc:Work rdf:about="">
    <dc:format>image/svg+xml</dc:format>
    <dc:type rdf:resource="http://purl.org/dc/dcmitype/StillImage"/>
    <dc:title/>
   </cc:Work>
  </rdf:RDF>
 </metadata>
 <defs>
  <linearGradient id="linearGradient1011" x1="3.9687" x2="3.9687" y1="-12.171" y2="-6.879" gradientTransform="matrix(1 0 0 .99894 1.0583 14.153)" gradientUnits="userSpaceOnUse">
   <stop stop-color="#059bff" offset="0"/>
   <stop stop-color="#005aff" offset="1"/>
  </linearGradient>
  <linearGradient id="linearGradient921" x1="7.9373" x2="7.9373" y1="1.0583" y2="-8.2019" gradientTransform="translate(1.0583,14.42)" gradientUnits="userSpaceOnUse">
   <stop stop-color="#005aff" offset="0"/>
   <stop stop-color="#059bff" offset="1"/>
  </linearGradient>
  <style type="text/css"/>
 </defs>
 <g transform="matrix(12.283 0 0 12.283 -3.9997 -3.9979)">
  <g fill="#5e4aa6" stroke-width=".26458">
   <circle cx="-330.35" cy="-328.38" r="0"/>
   <circle cx="-312.11" cy="-326.25" r="0"/>
   <circle cx="-306.02" cy="-333.07" r="0"/>
   <circle cx="-308.84" cy="-326.01" r="0"/>
   <circle cx="-328.8" cy="-330.45" r="0"/>
  </g>
  <g transform="translate(-21.76,-10.352)" fill="#5e4aa6" stroke-width=".26458">
   <circle cx="-330.35" cy="-328.38" r="0"/>
   <circle cx="-312.11" cy="-326.25" r="0"/>
   <circle cx="-306.02" cy="-333.07" r="0"/>
   <circle cx="-308.84" cy="-326.01" r="0"/>
   <circle cx="-328.8" cy="-330.45" r="0"/>
  </g>
  <g transform="translate(-.52916 -.39687)">
   <path d="m1.5875 2.2489c-0.29315 0-0.52916 0.23575-0.52916 0.5286v9.2614c0 0.29284 0.236 0.5286 0.52916 0.5286h14.816c0.29315 0 0.52916-0.23576 0.52916-0.5286v-6.6075c0-0.21963-0.08855-0.4178-0.23202-0.56112s-0.34185-0.23178-0.56171-0.23178h-6.8651c-0.83239 0-1.7561-1.3313-2.1306-1.8604 0 0-0.26458-0.52916-0.80355-0.52916z" fill="url(#linearGradient1011)"/>
   <rect x="1.852" y="5.4239" width="14.287" height="9.6192" ry=".52916" fill="#fff"/>
   <path d="m1.0583 6.2176v8.4665c0 0.43973 0.35401 0.79373 0.79373 0.79373h14.287c0.43973 0 0.79373-0.354 0.79373-0.79373v-8.4665z" fill="url(#linearGradient921)"/>
   <rect x="1.0583" y="6.2176" width="15.875" height=".26458" fill="#fff" opacity=".3"/>
  </g>
  <g transform="translate(-4.8947)" fill="#fff">
   <path transform="scale(.26458)" d="m44 30c-1.108 0-2 0.892-2 2v17c0 1.108 0.892 2 2 2h13c1.108 0 2-0.892 2-2v-17c0-1.108-0.892-2-2-2h-3a0.5 0.5 0 0 0-0.49805 0.5 0.5 0.5 0 0 0 0.49805 0.5 0.5 0.5 0 0 0 2e-3 0h2.998c0.554 0 1 0.446 1 1v17c0 0.554-0.446 1-1 1h-13c-0.554 0-1-0.446-1-1v-17c0-0.554 0.446-1 1-1h3.998a0.5 0.5 0 0 0 2e-3 0 0.5 0.5 0 0 0 0.49805-0.5 0.5 0.5 0 0 0-0.49805-0.5h-2e-3z"/>
   <rect x="13.229" y="7.9373" width=".26458" height="4.4978" ry=".13229"/>
   <rect transform="rotate(45)" x="18.015" y="-2.4683" width=".26458" height="1.852" ry=".13229"/>
   <rect transform="matrix(-.70711 .70711 .70711 .70711 0 0)" x="-.88063" y="16.427" width=".26458" height="1.852" ry=".13229"/>
  </g>
 </g>
</svg>

<?xml version="1.0" encoding="UTF-8" standalone="no"?>
<svg
   xmlns:dc="http://purl.org/dc/elements/1.1/"
   xmlns:cc="http://creativecommons.org/ns#"
   xmlns:rdf="http://www.w3.org/1999/02/22-rdf-syntax-ns#"
   xmlns:svg="http://www.w3.org/2000/svg"
   xmlns="http://www.w3.org/2000/svg"
   xmlns:sodipodi="http://sodipodi.sourceforge.net/DTD/sodipodi-0.dtd"
   xmlns:inkscape="http://www.inkscape.org/namespaces/inkscape"
   width="200"
   height="200"
   version="1.1"
   id="svg64"
   sodipodi:docname="folder-download.svg"
   inkscape:version="0.92.5 (6c0c36ef5a, 2020-05-15, custom)">
  <sodipodi:namedview
     pagecolor="#ffffff"
     bordercolor="#666666"
     borderopacity="1"
     objecttolerance="10"
     gridtolerance="10"
     guidetolerance="10"
     inkscape:pageopacity="0"
     inkscape:pageshadow="2"
     inkscape:window-width="1920"
     inkscape:window-height="932"
     id="namedview66"
     showgrid="false"
     inkscape:zoom="1.18"
     inkscape:cx="100"
     inkscape:cy="100"
     inkscape:window-x="0"
     inkscape:window-y="36"
     inkscape:window-maximized="1"
     inkscape:current-layer="svg64" />
  <metadata
     id="metadata2">
    <rdf:RDF>
      <cc:Work
         rdf:about="">
        <dc:format>image/svg+xml</dc:format>
        <dc:type
           rdf:resource="http://purl.org/dc/dcmitype/StillImage" />
        <dc:title></dc:title>
      </cc:Work>
    </rdf:RDF>
  </metadata>
  <defs
     id="defs16">
    <linearGradient
       id="linearGradient1011"
       x1="3.9687"
       x2="3.9687"
       y1="-12.171"
       y2="-6.879"
       gradientTransform="matrix(1 0 0 .99894 1.0583 14.153)"
       gradientUnits="userSpaceOnUse">
      <stop
         stop-color="#059bff"
         offset="0"
         id="stop4" />
      <stop
         stop-color="#005aff"
         offset="1"
         id="stop6" />
    </linearGradient>
    <linearGradient
       id="linearGradient921"
       x1="7.9373"
       x2="7.9373"
       y1="1.0583"
       y2="-8.2019"
       gradientTransform="translate(1.0583,14.42)"
       gradientUnits="userSpaceOnUse">
      <stop
         stop-color="#005aff"
         offset="0"
         id="stop9" />
      <stop
         stop-color="#059bff"
         offset="1"
         id="stop11" />
    </linearGradient>
    <style
       type="text/css"
       id="style14" />
    <linearGradient
       gradientUnits="userSpaceOnUse"
       gradientTransform="matrix(1,0,0,0.99894,1.0583,14.153)"
       y2="-6.879"
       y1="-12.171"
       x2="3.9687"
       x1="3.9687"
       id="linearGradient1011-3">
      <stop
         id="stop873"
         offset="0"
         stop-color="#a0faaa" />
      <stop
         id="stop875"
         offset="1"
         stop-color="#28c8c8" />
    </linearGradient>
    <linearGradient
       gradientUnits="userSpaceOnUse"
       gradientTransform="translate(1.0583,14.42)"
       y2="-8.2019"
       y1="1.0583"
       x2="7.9373"
       x1="7.9373"
       id="linearGradient921-6">
      <stop
         id="stop878"
         offset="0"
         stop-color="#28c8c8" />
      <stop
         id="stop880"
         offset="1"
         stop-color="#a0faaa" />
    </linearGradient>
    <style
       id="style883"
       type="text/css" />
  </defs>
  <g
     id="g966"
     transform="matrix(12.283465,0,0,12.283465,-3.9996762,-3.997895)">
    <g
       id="g899"
       style="fill:#5e4aa6;stroke-width:0.26458001">
      <circle
         id="circle889"
         r="0"
         cy="-328.38"
         cx="-330.35001" />
      <circle
         id="circle891"
         r="0"
         cy="-326.25"
         cx="-312.10999" />
      <circle
         id="circle893"
         r="0"
         cy="-333.07001"
         cx="-306.01999" />
      <circle
         id="circle895"
         r="0"
         cy="-326.01001"
         cx="-308.84" />
      <circle
         id="circle897"
         r="0"
         cy="-330.45001"
         cx="-328.79999" />
    </g>
    <g
       id="g911"
       transform="translate(-21.76,-10.352)"
       style="fill:#5e4aa6;stroke-width:0.26458001">
      <circle
         id="circle901"
         r="0"
         cy="-328.38"
         cx="-330.35001" />
      <circle
         id="circle903"
         r="0"
         cy="-326.25"
         cx="-312.10999" />
      <circle
         id="circle905"
         r="0"
         cy="-333.07001"
         cx="-306.01999" />
      <circle
         id="circle907"
         r="0"
         cy="-326.01001"
         cx="-308.84" />
      <circle
         id="circle909"
         r="0"
         cy="-330.45001"
         cx="-328.79999" />
    </g>
    <g
       id="g921"
       transform="translate(-0.52916,-0.39687)">
      <path
         style="fill:url(#linearGradient1011-3)"
         id="path913"
         d="m 1.5875,2.2489 c -0.29315,0 -0.52916,0.23575 -0.52916,0.5286 v 9.2614 c 0,0.29284 0.236,0.5286 0.52916,0.5286 h 14.816 c 0.29315,0 0.52916,-0.23576 0.52916,-0.5286 V 5.4314 c 0,-0.21963 -0.08855,-0.4178 -0.23202,-0.56112 C 16.55717,4.72696 16.35879,4.6385 16.13893,4.6385 h -6.8651 c -0.83239,0 -1.7561,-1.3313 -2.1306,-1.8604 0,0 -0.26458,-0.52916 -0.80355,-0.52916 z"
         inkscape:connector-curvature="0" />
      <rect
         id="rect915"
         ry="0.52916002"
         height="9.6191998"
         width="14.287"
         y="5.4239001"
         x="1.852"
         style="fill:#ffffff" />
      <path
         style="fill:url(#linearGradient921-6)"
         id="path917"
         d="m 1.0583,6.2176 v 8.4665 c 0,0.43973 0.35401,0.79373 0.79373,0.79373 h 14.287 c 0.43973,0 0.79373,-0.354 0.79373,-0.79373 V 6.2176 Z"
         inkscape:connector-curvature="0" />
      <rect
         id="rect919"
         height="0.26458001"
         width="15.875"
         y="6.2175999"
         x="1.0583"
         style="opacity:0.3;fill:#ffffff" />
    </g>
    <g
       id="g931"
       transform="translate(-4.8947)"
       style="fill:#ffffff">
      <path
         id="path923"
         d="m 44,30 c -1.108,0 -2,0.892 -2,2 v 17 c 0,1.108 0.892,2 2,2 h 13 c 1.108,0 2,-0.892 2,-2 V 32 c 0,-1.108 -0.892,-2 -2,-2 H 54 A 0.5,0.5 0 0 0 53.50195,30.5 0.5,0.5 0 0 0 54,31 0.5,0.5 0 0 0 54.002,31 H 57 c 0.554,0 1,0.446 1,1 v 17 c 0,0.554 -0.446,1 -1,1 H 44 c -0.554,0 -1,-0.446 -1,-1 V 32 c 0,-0.554 0.446,-1 1,-1 h 3.998 A 0.5,0.5 0 0 0 48,31 0.5,0.5 0 0 0 48.49805,30.5 0.5,0.5 0 0 0 48,30 h -0.002 z"
         transform="scale(0.26458)"
         inkscape:connector-curvature="0" />
      <rect
         id="rect925"
         ry="0.13229001"
         height="4.4977999"
         width="0.26458001"
         y="7.9373002"
         x="13.229" />
      <rect
         id="rect927"
         ry="0.13229001"
         height="1.852"
         width="0.26458001"
         y="-2.4683001"
         x="18.014999"
         transform="rotate(45)" />
      <rect
         id="rect929"
         ry="0.13229001"
         height="1.852"
         width="0.26458001"
         y="16.427"
         x="-0.88063002"
         transform="matrix(-0.70711,0.70711,0.70711,0.70711,0,0)" />
    </g>
  </g>
</svg>
